X: 3026
T: Minuet
%R: minuet, waltz
B: Henry Playford "Apollo's Banquet", London 1687 (5th Edition)
F: https://archive.org/details/apollosbanquetco01rugg
Z: 2017 John Chambers <jc:trillian.mit.edu>
N: Initial "pickup" rest added to fix the rhythm of repeats.
M: 3/4
L: 1/8
K: C
% - - - - - - - - - -
|:\
c2 c2 c2 | g2 g2 f2 | e2 c2 f2 | ef gf ed |\
c2 c2 c2 | g2 g3  f | e2 cd ef | g6 :|
|:\
d2 d2 d2 | Bc d2 G2 | e2 c2 e2 | f2 e2 d2 |\
ef g2 c2 | f2 f2 e2 | d2 g2 B2 | Hc6 |]
% - - - - - - - - - -

%%sep 1 1 500
%%sep 1 1 500

